X: 9233
T:Pas d'Ete - scottish/schottisch/schottische
Z:abc transcription Simon Wascher
N:please mail errors to: simon.wascher@chello.at
M:2/4
L:1/16
K:G
gfge d2d2|BcdBG4|AGFG ABcd|edcd B2G2|
gfge d2d2|BcdBG4|AGFG ABcd|edcdG4:|
|:G2DG B2G2|BAA2 FGAF|G2D2 G2DG|B2G2 BAA2|
FGAFG4:|
